!!!COM:	Johannes Ockeghem
!!!CDT:	~1425-1497/02/06
!!!OPR:	Missa Au travail suis
!!!ONM:	4
!!!OTL:	Sanctus
!!!AGN:	Mass; Sanctus
!!!SCT:	Ock1002d
!!!SCA:	Ock1002d
!!!voices:	4
!!!voices-OPR:	4
**kern	**text	**kern	**text	**kern	**text	**kern	**text
*staff4	*staff4	*staff3	*staff3	*staff2	*staff2	*staff1	*staff1
*Ivox	*	*Ivox	*	*Ivox	*	*Ivox	*
*I"Bassus	*	*I"Tenor	*	*I"Contratenor	*	*I"Discantus	*
*I'B	*	*I'T	*	*I'Ct	*	*I'D	*
*>[A,B]	*>[A,B]	*>[A,B]	*>[A,B]	*>[A,B]	*>[A,B]	*>[A,B]	*>[A,B]
*>A	*>A	*>A	*>A	*>A	*>A	*>A	*>A
*clefF4	*	*clefF4	*	*clefG2	*	*clefG2	*
*k[]	*	*k[]	*	*k[]	*	*k[]	*
*M2/1	*	*M2/1	*	*M2/1	*	*M2/1	*
*met(C)	*	*met(C)	*	*met(C)	*	*met(C)	*
!!incipit: 5
!!section: Sanctus, Pleni, and Osanna I
!!!OMD: Sanctus, Pleni, and Osanna I
=1-	=1-	=1-	=1-	=1-	=1-	=1-	=1-
0r	.	1D	Sanc-	0r	.	0r	.
.	.	1F	.	.	.	.	.
=2	=2	=2	=2	=2	=2	=2	=2
0r	.	1E	.	0r	.	1r	.
.	.	1AA	-tus,	.	.	1a	Sanc-
=3	=3	=3	=3	=3	=3	=3	=3
0r	.	1r	.	0r	.	1cc	.
.	.	1G	sanc-	.	.	1b	.
=4	=4	=4	=4	=4	=4	=4	=4
0r	.	1A	.	1c	Sanc-	1e	-tus,
.	.	2F\	.	1f	.	1r	.
.	.	2D\	.	.	.	.	.
=5	=5	=5	=5	=5	=5	=5	=5
0r	.	1E	.	1e	.	1g	sanc-
.	.	2D\	.	1A	-tus,	1a	.
.	.	2C/	.	.	.	.	.
=6	=6	=6	=6	=6	=6	=6	=6
0r	.	2D\	.	1r	.	2f/	.
.	.	2BB/	.	.	.	2d/	.
.	.	1AA	-tus,	1c	sanc-	1e	.
=7	=7	=7	=7	=7	=7	=7	=7
1r	.	0r	.	1d	.	2d/	.
.	.	.	.	.	.	2f/	.
2r	.	.	.	2B/	.	2g/	.
[2F\	Sanc-	.	.	2c/	.	[2a/	.
=8	=8	=8	=8	=8	=8	=8	=8
1F]	.	0r	.	1A	.	2a/]	.
.	.	.	.	.	.	2cc\	.
2G\	.	.	.	2G/	.	2b\	.
2D\	.	.	.	2F/	.	[2a/	.
=9	=9	=9	=9	=9	=9	=9	=9
1E	.	0r	.	1G	.	4a/]	.
.	.	.	.	.	.	4g/	.
.	.	.	.	.	.	1g	.
1D	-tus,	.	.	1A	.	.	.
.	.	.	.	.	.	2f#i/	.
=10	=10	=10	=10	=10	=10	=10	=10
2r	.	1GG	sanc-	1G	-tus	1g	-tus
1D	sanc-	.	.	.	.	.	.
.	.	1BB	.	1r	.	1r	.
2F\	.	.	.	.	.	.	.
=11	=11	=11	=11	=11	=11	=11	=11
2E\	.	2C/	.	0r	.	0r	.
2D\	.	2.D\	.	.	.	.	.
2A\	.	.	.	.	.	.	.
.	.	4AA/	.	.	.	.	.
[2A\	.	2C/	.	.	.	.	.
=12	=12	=12	=12	=12	=12	=12	=12
2A\]	.	1BB	.	0r	.	0r	.
2G\	.	.	.	.	.	.	.
2.A\	.	1AA	-tus	.	.	.	.
4B\	.	.	.	.	.	.	.
=13	=13	=13	=13	=13	=13	=13	=13
2c\	.	1r	.	0r	.	0r	.
1F	.	.	.	.	.	.	.
.	.	2.A\	sanc-	.	.	.	.
2D\	.	.	.	.	.	.	.
.	.	4B\	.	.	.	.	.
=14	=14	=14	=14	=14	=14	=14	=14
1C	-tus	1c	-tus	0r	.	1r	.
1r	.	[1F	do-	.	.	[1a	do-
=15	=15	=15	=15	=15	=15	=15	=15
1.c	do-	2F\]	.	2r	.	2a/]	.
.	.	2F\	-mi-	1f	do-	2a/	-mi-
.	.	1F	-nus	.	.	1a	-nus
2c\	-mi-	.	.	2f/	-mi-	.	.
=16	=16	=16	=16	=16	=16	=16	=16
2.c\	-nus-	1F	de-	1f	-nus	1a	de-
4B\	.	.	.	.	.	.	.
2G\	.	2E\	.	2r	.	2b-i\	.
2F\	-de-	2F\	.	[2f/	de-	[2a/	.
=17	=17	=17	=17	=17	=17	=17	=17
2A\	.	1D	.	2f/]	.	2a/]	.
2B\	.	.	.	2d/	.	2f/	.
1c	.	1C	-us	2e/	.	1e	-us
.	.	.	.	[2c/	.	.	.
=18	=18	=18	=18	=18	=18	=18	=18
2A\	.	2r	.	2c/]	.	1r	.
2F\	.	1c	sa-	2.f/	.	.	.
1G	.	.	.	.	.	2.g/	sa-
.	.	.	.	4d/	.	.	.
.	.	2B\	.	2e/	.	.	.
.	.	.	.	.	.	4a/	.
=19	=19	=19	=19	=19	=19	=19	=19
1F	-us	2d\	.	1f	-us	2b-i\	.
.	.	2c\	.	.	.	1a	.
1r	.	2A\	.	1r	.	.	.
.	.	2B-i\	.	.	.	[2f/	.
=20	=20	=20	=20	=20	=20	=20	=20
1r	.	2.G\	.	1r	.	2f/]	.
.	.	.	.	.	.	2e/	.
.	.	4F\	.	.	.	.	.
2.A\	sa-	1D	.	1d	sa-	1f	.
4G\	.	.	.	.	.	.	.
=21	=21	=21	=21	=21	=21	=21	=21
2E\	.	2C/	.	2e/	.	2g/	.
2D\	.	1D	.	1f	.	2f/	.
2F\	.	.	.	.	.	2a/	.
2G\	.	2BB/	.	2d/	.	2b\	.
=22	=22	=22	=22	=22	=22	=22	=22
1A	.	2AA/	.	2c/	.	1cc	-ba-
.	.	1A	.	2e/	.	.	.
2D\	.	.	.	2f/	.	1a	-oth,
[2A\	-ba-	2F\	.	[2d/	-ba-	.	.
=23	=23	=23	=23	=23	=23	=23	=23
2A\]	.	1E	-ba-	2d/]	.	1r	.
2G\	.	.	.	2c#i/	.	.	.
[1A	-oth.	[1D	-oth.	1d	-oth.	[1f	Ple-
=24	=24	=24	=24	=24	=24	=24	=24
1A]	.	1D]	.	1r	.	2f/]	.
.	.	.	.	.	.	2d/	.
1r	.	1r	.	[1c	Ple-	[1e	.
=25	=25	=25	=25	=25	=25	=25	=25
0r	.	0r	.	1c]	.	2e/]	.
.	.	.	.	.	.	2f/	.
.	.	.	.	[1c	-ni,-	2g/	.
.	.	.	.	.	.	4f/	.
.	.	.	.	.	.	4g/	.
=26	=26	=26	=26	=26	=26	=26	=26
0r	.	0r	.	1c]	.	2a/	.
.	.	.	.	.	.	2cc\	.
.	.	.	.	2d/	-ple-	2b\	.
.	.	.	.	2A/	.	[2a/	.
=27	=27	=27	=27	=27	=27	=27	=27
0r	.	0r	.	1B	.	4a/]	.
.	.	.	.	.	.	4g#i/	.
.	.	.	.	.	.	4g#i/	.
.	.	.	.	.	.	4f#i/	.
.	.	.	.	1A	-ni,	1a	-ni,
=28	=28	=28	=28	=28	=28	=28	=28
0r	.	0r	.	1r	.	2g/	ple-
.	.	.	.	.	.	2e/	.
.	.	.	.	1A	ple-	2f/	.
.	.	.	.	.	.	[2e/	.
=29	=29	=29	=29	=29	=29	=29	=29
0r	.	0r	.	2G/	.	2e/]	.
.	.	.	.	2F/	.	2.a/	.
.	.	.	.	2.A/	.	.	.
.	.	.	.	.	.	4g/	.
.	.	.	.	.	.	2a/	.
.	.	.	.	4B/	.	.	.
=30	=30	=30	=30	=30	=30	=30	=30
0r	.	0r	.	2c/	.	2g/	.
.	.	.	.	1c	.	2e/	.
.	.	.	.	.	.	1d	-ni
.	.	.	.	2B/	.	.	.
=31	=31	=31	=31	=31	=31	=31	=31
0r	.	0r	.	0c	-ni	2r	.
.	.	.	.	.	.	2.e/	ple-
.	.	.	.	.	.	4f/	.
.	.	.	.	.	.	[2g/	.
=32	=32	=32	=32	=32	=32	=32	=32
0r	.	0r	.	1c	sunt	4g/]	.
.	.	.	.	.	.	8f/L	.
.	.	.	.	.	.	8g/J	.
.	.	.	.	.	.	2a/	-ni
.	.	.	.	2.c/	ce-	2g/	sunt
.	.	.	.	.	.	[2cc\	ce-
.	.	.	.	4d/	.	.	.
=33	=33	=33	=33	=33	=33	=33	=33
0r	.	0r	.	2e/	.	1.cc]	.
.	.	.	.	2.f/	.	.	.
.	.	.	.	4g/	.	.	.
.	.	.	.	[2a/	-li	[2cc\	-li-
=34	=34	=34	=34	=34	=34	=34	=34
0r	.	0r	.	2a/]	.	1.cc]	.
.	.	.	.	2.e/	et-	.	.
.	.	.	.	4c/	.	.	.
.	.	.	.	[2d/	.	[2b\	-et-
=35	=35	=35	=35	=35	=35	=35	=35
0r	.	0r	.	4d/]	.	2b\]	.
.	.	.	.	4A/	.	.	.
.	.	.	.	2c/	.	1a	-ter-
.	.	.	.	1B	-ter-	.	.
.	.	.	.	.	.	2g#i/	.
=36	=36	=36	=36	=36	=36	=36	=36
1r	.	1r	.	1A	-ra.	1a	-ra
[1B-	glo-	[1G	glo-	1r	.	1r	.
=37	=37	=37	=37	=37	=37	=37	=37
2B-\]	.	2G\]	.	0r	.	0r	.
2A\	.	2F\	.	.	.	.	.
1A	-ri-	1F	-ri-	.	.	.	.
=38	=38	=38	=38	=38	=38	=38	=38
2G\	-a	2E\	-a-	0r	.	0r	.
1A	tu-	2F\	.	.	.	.	.
.	.	1D	-tu-	.	.	.	.
2F\	.	.	.	.	.	.	.
=39	=39	=39	=39	=39	=39	=39	=39
2.E\	.	1C	.	0r	.	0r	.
4C/	.	.	.	.	.	.	.
2D\	.	2BB/	.	.	.	.	.
[2C/	.	2C/	.	.	.	.	.
=40	=40	=40	=40	=40	=40	=40	=40
2C/]	.	2E\	.	0r	.	0r	.
1F	.	2.D\	.	.	.	.	.
.	.	4C/	.	.	.	.	.
2A\	.	[2F\	.	.	.	.	.
=41	=41	=41	=41	=41	=41	=41	=41
1G	.	2F\]	.	0r	.	0r	.
.	.	2E\	.	.	.	.	.
1F	-a.	1F	-a	.	.	.	.
=42	=42	=42	=42	=42	=42	=42	=42
1r	.	1r	.	1r	.	1r	.
[1E	O-	[1C	O-	[1c	O-	[1g	O-
=43	=43	=43	=43	=43	=43	=43	=43
1E]	.	1C]	.	1c]	.	1g]	.
[1G	-san-	[1BB	-san-	[1d	-san-	[1b	-san-
=44	=44	=44	=44	=44	=44	=44	=44
1G]	.	1BB]	.	1d]	.	1b]	.
[1A;	-na,-	[1AA;	-na,	[1e;	-na-	[1cc;	-na
=45	=45	=45	=45	=45	=45	=45	=45
1A]	.	1AA]	.	1e]	.	1cc]	.
[1c	-o-	[1F	o-	[1f	-o-	[1a	o-
=46	=46	=46	=46	=46	=46	=46	=46
1c]	.	1F]	.	1f]	.	1a]	.
[1c	-san-	[1F	-san-	[1f	-san-	[1a	-san-
=47	=47	=47	=47	=47	=47	=47	=47
1c]	.	1F]	.	1f]	.	1a]	.
1c	-na	1F	-na	1f	-na	1a	-na
=48	=48	=48	=48	=48	=48	=48	=48
1c	in	1F	in	1f	in	1a	in
[1B	ex-	[1G	ex-	[1d	ex-	[1g	ex-
=49	=49	=49	=49	=49	=49	=49	=49
2B\]	.	2G\]	.	2d/]	.	1g]	.
2G\	.	2E\	.	2c/	.	.	.
[1G	-cel-	[1E	-cel-	[1c	-cel-	[1g	-cel-
=50	=50	=50	=50	=50	=50	=50	=50
1G]	.	1E]	.	1c_	.	2g/]	.
.	.	.	.	.	.	2e/	.
[1A;	.	[1AA;	.	1c;_	.	[1e;	.
=51	=51	=51	=51	=51	=51	=51	=51
1A]	.	1AA]	.	1c]	.	1e]	.
*	*	*^	*	*	*	*^	*
1Al	-sis.	1Dl\	1Fl/	-sis.	1dl	-sis.	1dl\	1fl/	-sis.
*	*	*v	*v	*	*	*	*v	*v	*
!!LO:LB:i:g=z
=52||	=52||	=52||	=52||	=52||	=52||	=52||	=52||
*>B	*>B	*>B	*>B	*>B	*>B	*>B	*>B
*clefF4	*	*clefF4	*	*clefG2	*	*clefG2	*
*k[]	*	*k[]	*	*k[]	*	*k[]	*
*M2/1	*	*M2/1	*	*M2/1	*	*M2/1	*
*met(C|)	*	*met(C|)	*	*met(C|)	*	*met(C|)	*
!!section: Benedictus and Osanna II
!!!OMD: Benedictus and Osanna II
0r	.	[0E	Be-	0r	.	[0g	Be-
=53	=53	=53	=53	=53	=53	=53	=53
0r	.	0E_	.	0r	.	0g]	.
=54	=54	=54	=54	=54	=54	=54	=54
0r	.	0E_	.	0r	.	1.g	-ne-
.	.	.	.	.	.	2e/	.
=55	=55	=55	=55	=55	=55	=55	=55
0r	.	0E]	.	0r	.	1g	-dic-
.	.	.	.	.	.	[1b	.
=56	=56	=56	=56	=56	=56	=56	=56
0r	.	0D	-ne-	0r	.	2b\]	.
.	.	.	.	.	.	2a/	.
.	.	.	.	.	.	[1a	-tus,
=57	=57	=57	=57	=57	=57	=57	=57
0r	.	1F	-dic-	0r	.	1a]	.
.	.	1G	.	.	.	1b	be-
=58	=58	=58	=58	=58	=58	=58	=58
0r	.	0A	.	0r	.	1a	.
.	.	.	.	.	.	[1cc	.
=59	=59	=59	=59	=59	=59	=59	=59
0r	.	0E	-tus,	0r	.	2cc\]	.
.	.	.	.	.	.	2b\	.
.	.	.	.	.	.	1g	.
=60	=60	=60	=60	=60	=60	=60	=60
0r	.	1F	be-	0r	.	1a	.
.	.	1E	.	.	.	[1b	.
=61	=61	=61	=61	=61	=61	=61	=61
0r	.	0G	.	0r	.	1b]	.
.	.	.	.	.	.	1dd	.
=62	=62	=62	=62	=62	=62	=62	=62
0r	.	0A	.	0r	.	1cc	-ne-
.	.	.	.	.	.	[1a	-dic-
=63	=63	=63	=63	=63	=63	=63	=63
0r	.	1D	-ne-	0r	.	2a/]	.
.	.	.	.	.	.	2g/	.
.	.	[1A	-dic-	.	.	2f/	.
.	.	.	.	.	.	2e/	.
=64	=64	=64	=64	=64	=64	=64	=64
0r	.	1A]	.	0r	.	0e	-tus,
.	.	1G	.	.	.	.	.
=65	=65	=65	=65	=65	=65	=65	=65
0r	.	1F	.	0r	.	1f	be-
.	.	[1A	-tus,	.	.	1e	.
=66	=66	=66	=66	=66	=66	=66	=66
0r	.	1A]	.	0r	.	1.a	.
.	.	1B	be-	.	.	.	.
.	.	.	.	.	.	2g/	.
=67	=67	=67	=67	=67	=67	=67	=67
0r	.	1A	.	0r	.	1cc	-ne-
.	.	1G	-ne-	.	.	[1b	-dic-
=68	=68	=68	=68	=68	=68	=68	=68
0r	.	0c	-dic-	0r	.	2b\]	.
.	.	.	.	.	.	2a/	.
.	.	.	.	.	.	[1a	.
=69	=69	=69	=69	=69	=69	=69	=69
0r	.	0B	.	0r	.	1a]	.
.	.	.	.	.	.	1g#i	.
=70	=70	=70	=70	=70	=70	=70	=70
0r	.	[0A	-tus,	0r	.	[0a	-tus,-
=71	=71	=71	=71	=71	=71	=71	=71
0D	qui	0A]	.	0f	qui-	0a]	.
=72	=72	=72	=72	=72	=72	=72	=72
1E	ve-	0r	.	1g	.	0r	.
1D	.	.	.	[1a	-ve-	.	.
=73	=73	=73	=73	=73	=73	=73	=73
0F	.	0r	.	1a]	.	0r	.
.	.	.	.	1d	.	.	.
=74	=74	=74	=74	=74	=74	=74	=74
0G	.	0r	.	1e	.	0r	.
.	.	.	.	[1g	.	.	.
=75	=75	=75	=75	=75	=75	=75	=75
0B-	.	0r	.	2g/]	.	0r	.
.	.	.	.	2f/	.	.	.
.	.	.	.	1d	.	.	.
=76	=76	=76	=76	=76	=76	=76	=76
1A	.	0r	.	1c	.	0r	.
1F	.	.	.	1d	.	.	.
=77	=77	=77	=77	=77	=77	=77	=77
1G	.	0r	.	1B	.	0r	.
[1A	.	.	.	1c	.	.	.
=78	=78	=78	=78	=78	=78	=78	=78
1A]	.	0r	.	1f	.	0r	.
[1c	.	.	.	1e	.	.	.
=79	=79	=79	=79	=79	=79	=79	=79
1c]	.	0r	.	1.a	.	0r	.
[1B-i	-nit-	.	.	.	.	.	.
.	.	.	.	2f/	.	.	.
=80	=80	=80	=80	=80	=80	=80	=80
2B-\]	.	0r	.	1g	.	0r	.
4A\	.	.	.	.	.	.	.
4G\	.	.	.	.	.	.	.
1F	.	.	.	1a	.	.	.
=81	=81	=81	=81	=81	=81	=81	=81
[0c	-qui-	0r	.	2g/	.	0r	.
.	.	.	.	2.a/	.	.	.
.	.	.	.	4g/	.	.	.
.	.	.	.	2a/	.	.	.
=82	=82	=82	=82	=82	=82	=82	=82
0c]	.	0r	.	2g/	.	0r	.
.	.	.	.	1e	.	.	.
.	.	.	.	2c/	.	.	.
=83	=83	=83	=83	=83	=83	=83	=83
1B-i	-ve-	0r	.	1d	.	0r	.
1A	.	.	.	2c/	.	.	.
.	.	.	.	[2f/	.	.	.
=84	=84	=84	=84	=84	=84	=84	=84
1F	.	0r	.	4f/]	.	0r	.
.	.	.	.	4g/	.	.	.
.	.	.	.	1a	.	.	.
1A	.	.	.	.	.	.	.
.	.	.	.	2f/	.	.	.
=85	=85	=85	=85	=85	=85	=85	=85
2B-i\	.	0r	.	2g/	.	0r	.
1c	.	.	.	4f/	.	.	.
.	.	.	.	4g/	.	.	.
.	.	.	.	1a	.	.	.
2F\	.	.	.	.	.	.	.
=86	=86	=86	=86	=86	=86	=86	=86
2A\	.	0r	.	2f/	.	0r	.
2B-i\	.	.	.	1f	.	.	.
1G	-nit	.	.	.	.	.	.
.	.	.	.	2e/	.	.	.
=87	=87	=87	=87	=87	=87	=87	=87
1.F	in-	1r	.	0f	-nit	0r	.
.	.	1F	in	.	.	.	.
4E\	.	.	.	.	.	.	.
4D\	.	.	.	.	.	.	.
=88	=88	=88	=88	=88	=88	=88	=88
2C/	.	2E\	no-	0r	.	0r	.
2E\	.	2C/	.	.	.	.	.
2D\	-no-	2D\	.	.	.	.	.
2F\	.	[2AA/	.	.	.	.	.
=89	=89	=89	=89	=89	=89	=89	=89
2E\	.	2AA/]	.	0r	.	0r	.
1A	.	2C/	.	.	.	.	.
.	.	1BB	.	.	.	.	.
2G#i\	.	.	.	.	.	.	.
=90	=90	=90	=90	=90	=90	=90	=90
1A	.	1AA	.	0r	.	0r	.
2D\	.	2BB/	.	.	.	.	.
[2E\	-mi-	2C/	.	.	.	.	.
=91	=91	=91	=91	=91	=91	=91	=91
2E\]	.	1AA	-mi-	0r	.	0r	.
4D\	.	.	.	.	.	.	.
4C/	.	.	.	.	.	.	.
2BB/	-ne	1GG	-ne	.	.	.	.
[2E\	do-	.	.	.	.	.	.
=92	=92	=92	=92	=92	=92	=92	=92
4E\]	.	2r	.	0r	.	0r	.
4D\	.	.	.	.	.	.	.
2BB/	.	2GG/	do-	.	.	.	.
2C/	.	2AA/	.	.	.	.	.
2AA/	.	2C/	.	.	.	.	.
=93	=93	=93	=93	=93	=93	=93	=93
2.D\	.	2BB/	.	0r	.	0r	.
.	.	1GG	.	.	.	.	.
4C/	.	.	.	.	.	.	.
4BB/	.	.	.	.	.	.	.
4AA/	.	.	.	.	.	.	.
[2AA/	.	2AA/	.	.	.	.	.
=94	=94	=94	=94	=94	=94	=94	=94
2AA/]	.	1BB	.	0r	.	0r	.
2GG/	.	.	.	.	.	.	.
2.C/	.	2.AA/	.	.	.	.	.
4D\	.	4GG/	.	.	.	.	.
=95	=95	=95	=95	=95	=95	=95	=95
2E\	.	2.C/	.	0r	.	0r	.
2F\	.	.	.	.	.	.	.
.	.	4D\	.	.	.	.	.
2E\	.	2E\	.	.	.	.	.
[2A\	.	2F\	.	.	.	.	.
=96	=96	=96	=96	=96	=96	=96	=96
2A\]	.	1D	.	0r	.	0r	.
2F\	.	.	.	.	.	.	.
2G\	.	2E\	.	.	.	.	.
2E\	.	2G\	.	.	.	.	.
=97	=97	=97	=97	=97	=97	=97	=97
2D\	.	2F\	.	0r	.	0r	.
2F\	.	1D	-mi-	.	.	.	.
1E	-mi-	.	.	.	.	.	.
.	.	2C#i/	.	.	.	.	.
=98	=98	=98	=98	=98	=98	=98	=98
0D;	-ni.	0D;	-ni.	0r	.	0r	.
=99	=99	=99	=99	=99	=99	=99	=99
0r	.	0r	.	0r	.	0r	.
=100	=100	=100	=100	=100	=100	=100	=100
[0E	O-	[0C	O-	[0e	O-	[0g	-O-
=101	=101	=101	=101	=101	=101	=101	=101
0E]	.	0C]	.	0e]	.	0g]	.
=102	=102	=102	=102	=102	=102	=102	=102
[0D	-san-	[0BB	-san-	[0g	-san-	[0b	-san-
=103	=103	=103	=103	=103	=103	=103	=103
0D]	.	0BB]	.	0g]	.	0b]	.
=104	=104	=104	=104	=104	=104	=104	=104
[0E;	-na,-	[0AA;	-na,	[0a;	-na,-	[0cc;	-na,-
=105	=105	=105	=105	=105	=105	=105	=105
0E]	.	0AA]	.	0a]	.	0cc]	.
=106	=106	=106	=106	=106	=106	=106	=106
[0F	-in-	[0D	in-	[0f	-in-	[0a	-in-
=107	=107	=107	=107	=107	=107	=107	=107
0F]	.	0D]	.	0f]	.	0a]	.
=108	=108	=108	=108	=108	=108	=108	=108
[0A	.	[0F	-ex-	[0d	-ex-	[0a	-ex-
=109	=109	=109	=109	=109	=109	=109	=109
0A]	.	0F]	.	0d_	.	0a]	.
=110	=110	=110	=110	=110	=110	=110	=110
0D	-ex-	[0F	-cel-	0d_	.	[0a	-cel-
=111	=111	=111	=111	=111	=111	=111	=111
0D	-cel-	0F]	.	0d]	.	0a]	.
=112	=112	=112	=112	=112	=112	=112	=112
[0GG	.	[0G	.	[0d	-cel-	[0b	.
=113	=113	=113	=113	=113	=113	=113	=113
0GG]	.	1G]	.	0d]	.	1b]	.
.	.	1E	.	.	.	1g	.
=114	=114	=114	=114	=114	=114	=114	=114
[0C	.	[0E	.	[0e	.	[0g	.
=115	=115	=115	=115	=115	=115	=115	=115
1C]	.	0E_	.	1e]	.	0g]	.
1AA	.	.	.	1c	.	.	.
=116	=116	=116	=116	=116	=116	=116	=116
[0AA;	.	0E_	.	[0c;	.	[0a;	.
=117	=117	=117	=117	=117	=117	=117	=117
0AA]	.	0E]	.	0c]	.	0a]	.
=118	=118	=118	=118	=118	=118	=118	=118
*^	*	*	*	*	*	*	*
0Dl\	0Al/	-sis.	0Dl	-sis.	0dl	-sis.	0al	-sis.
*v	*v	*	*	*	*	*	*	*
==	==	==	==	==	==	==	==
*-	*-	*-	*-	*-	*-	*-	*-
!!!RDF**kern: l=long note in original notation
!!!RDF**kern: i=editorial accidental
!!!RDF**kern: V=start of tuplet marker
!!!RDF**kern: Z=end of tuplet marker
!!!ENC:	Jesse Rodin 8-17-2012
!!!END:	2012/08/17/
!!!EED:	Jesse Rodin
!!!EEV:	2012/08/17/
!!!ONB:	Translated from MusicXML and edited on 2012/08/17/ by Craig Sapp
!!muse2ps: T^@{OPR}^u^@{ONM}{. }@{OTL}^C^@{COM}^i2I150v85,85,85,130Q8c140
